svg/s/PN.svg

<svg width="16" height="12" viewBox="0 0 16 12" fill="none" xmlns="http://www.w3.org/2000/svg">
<g clip-path="url(#clip0_270_55198)">
<rect width="16" height="12" fill="white"/>
<path fill-rule="evenodd" clip-rule="evenodd" d="M0 0V12H16V0H0Z" fill="#2E42A5"/>
<g clip-path="url(#clip1_270_55198)">
<rect width="9" height="7" fill="#2E42A5"/>
<path d="M-1.00214 6.4999L0.978339 7.3685L9.04494 0.944361L10.0896 -0.346405L7.97176 -0.636717L4.68159 2.13163L2.03334 3.99685L-1.00214 6.4999Z" fill="#F7FCFF"/>
<path d="M-0.731018 7.10849L0.277943 7.61255L9.71445 -0.466309H8.29775L-0.731018 7.10849Z" fill="#F50100"/>
<path d="M10.0021 6.4999L8.02166 7.3685L-0.0449371 0.944361L-1.08959 -0.346405L1.02824 -0.636717L4.31841 2.13163L6.96666 3.99685L10.0021 6.4999Z" fill="#F7FCFF"/>
<path d="M9.93457 6.93667L8.92561 7.44073L4.90745 3.98176L3.71615 3.59529L-1.1901 -0.341973H0.226597L5.13009 3.50184L6.43256 3.96525L9.93457 6.93667Z" fill="#F50100"/>
<path fill-rule="evenodd" clip-rule="evenodd" d="M4.99226 0H3.99226V3H0V4H3.99226V7H4.99226V4H9V3H4.99226V0Z" fill="#F50100"/>
<path fill-rule="evenodd" clip-rule="evenodd" d="M3.24226 -0.75H5.74226V2.25H9.75V4.75H5.74226V7.75H3.24226V4.75H-0.75V2.25H3.24226V-0.75ZM3.99226 3H0V4H3.99226V7H4.99226V4H9V3H4.99226V0H3.99226V3Z" fill="#F7FCFF"/>
</g>
<path fill-rule="evenodd" clip-rule="evenodd" d="M10.308 5.83454C10.308 5.83454 10.3574 6.35452 10.2492 6.64916C10.1409 6.9438 10.0859 7.11483 10.0859 6.92649C10.0859 6.73816 10.0099 6.58891 9.94877 6.58891C9.88763 6.58891 9.93589 6.77567 9.87445 6.77567C9.81301 6.77567 9.60133 6.80778 9.60133 6.69834C9.60133 6.58891 9.57348 6.99193 9.71083 7.02797C9.84819 7.06401 9.64414 7.17585 9.55304 7.14121C9.55304 7.14121 9.92776 7.25692 10.0747 7.35552C10.0747 7.35552 10.5152 7.87795 10.9272 7.81422C10.9272 7.81422 10.3662 7.63023 10.465 7.2787C10.5639 6.92717 10.9272 6.87632 10.9272 6.87632C10.9272 6.87632 11.0977 6.93049 11.0926 7.07239C11.0875 7.21429 11.2173 7.02797 11.2173 7.02797C11.2173 7.02797 11.2382 6.84869 11.2152 6.80494C11.1921 6.76119 11.6057 6.6765 11.6318 6.49188C11.6318 6.49188 11.2092 6.51023 11.1802 6.46281C11.1512 6.41538 11.311 6.34102 11.261 6.24857C11.211 6.15611 10.465 6.77567 10.465 6.77567C10.465 6.77567 10.7226 6.35397 10.7226 6.12752C10.7226 5.90106 10.6572 5.74631 10.465 5.74631C10.2729 5.74631 10.308 5.83454 10.308 5.83454Z" fill="#5EAA22"/>
<path fill-rule="evenodd" clip-rule="evenodd" d="M14.1917 5.95814C14.1912 5.95892 14.1922 5.95963 14.1929 5.95901C14.2204 5.93324 14.3918 5.78331 14.5353 5.9017C14.6919 6.03084 14.4564 6.15669 14.4564 6.15669C14.4564 6.15669 14.5665 6.25813 14.6924 6.25813C14.8183 6.25813 14.8492 6.15669 14.8492 6.15669C14.8492 6.15669 14.8588 6.38244 15.2694 6.46792C15.2694 6.46792 15.4159 6.26809 15.2694 6.15869C15.2694 6.15869 15.4425 6.12458 15.4299 5.99141C15.4299 5.99141 15.2877 6.03746 15.1862 5.93164C15.0847 5.82581 14.887 5.77701 14.7432 5.80141C14.3782 5.67635 14.2139 5.9214 14.1917 5.95814Z" fill="#5EAA22"/>
<path fill-rule="evenodd" clip-rule="evenodd" d="M11.7018 7.09713C11.7018 7.09713 12.1264 7.85587 11.8611 8.01309C11.5957 8.17031 13.1229 8.05847 13.2668 8.01309C13.4107 7.96771 13.2378 7.72848 13.0782 7.66207C12.9186 7.59565 12.2625 7.37469 12.088 7.20804C11.9135 7.04139 12.02 6.98225 12.1606 6.81774C12.3012 6.65323 12.8216 6.58745 12.8216 6.43369C12.8216 6.27992 13.1517 5.64578 13.3824 5.59793C13.6131 5.55009 13.4885 5.47474 13.4354 5.47474C13.3824 5.47474 13.0634 5.78707 12.9425 5.73072C12.8216 5.67437 12.8068 5.67833 12.9425 5.54213C13.0782 5.40592 13.1804 5.24915 13.001 5.36195C12.8216 5.47474 12.5258 5.65326 12.3837 5.65326C12.2415 5.65326 11.7354 5.59237 11.7982 5.73072C11.8611 5.86907 11.8877 6.10921 12.1606 6.27145C12.4335 6.43369 12.3149 6.55241 12.088 6.70874C11.8611 6.86508 11.7018 7.09713 11.7018 7.09713Z" fill="#96877D"/>
<path d="M14.5193 6.09378L13.7102 7.63532C13.7102 7.63532 13.6866 8.07077 14.2651 7.78061C14.8435 7.49045 14.8207 7.28465 14.9875 7.28465C15.1543 7.28465 15.2072 7.19667 15.2072 7.19667L15.0961 7.11368C15.0961 7.11368 15.0833 6.96231 15.1536 6.92832C15.1536 6.92832 15.0156 6.85607 14.9959 6.91639C14.9762 6.97671 14.8788 6.79023 14.9339 6.79023C14.9339 6.79023 14.8122 6.97744 14.7865 7.05049C14.7865 7.05049 14.6104 6.98246 14.6188 6.66729C14.6273 6.35212 14.5193 6.09378 14.5193 6.09378Z" fill="#FFD018"/>
<path d="M10.6682 5.84967C10.6682 5.84967 10.2562 5.94078 10.3006 6.0356C10.3451 6.13042 10.4105 6.03304 10.2088 6.14731C10.2088 6.14731 9.85447 6.4076 9.77724 6.3794C9.7 6.35119 9.83194 6.44496 9.83194 6.14731C9.83194 5.84967 9.62616 6.09195 9.83194 5.89326C10.0377 5.69456 10.1099 5.84967 10.2088 5.73533C10.3078 5.621 10.2188 5.6818 10.4873 5.6818C10.7557 5.6818 10.6682 5.84967 10.6682 5.84967Z" fill="#FFD018"/>
<path d="M11.9253 7.38171C11.9253 7.38171 10.7718 8.24289 10.5412 8.30717C10.3107 8.37146 11.0154 8.28949 11.1876 8.1758C11.3597 8.06211 11.9253 7.38171 11.9253 7.38171Z" fill="#FFD018"/>
<path fill-rule="evenodd" clip-rule="evenodd" d="M14.2123 8.89243C14.2123 8.89243 14.323 9.57094 14.034 9.50416C13.7449 9.43739 13.625 9.40285 13.625 9.40285C13.625 9.40285 13.731 9.71888 13.8825 9.71888C13.8825 9.71888 14.1406 10.1967 14.0413 10.3476C14.0413 10.3476 14.4859 10.005 14.414 9.73251C14.3421 9.46006 14.5289 9.77734 14.5289 9.77734C14.5289 9.77734 14.6926 9.8524 14.8108 9.76858C14.9291 9.68476 14.8093 9.72202 14.6911 9.56243C14.5728 9.40285 14.602 8.95467 14.2422 8.72239C13.8825 8.49012 13.7987 8.49754 13.7987 8.49754C13.7987 8.49754 13.5338 8.08601 13.6925 8.11322C13.6925 8.11322 14.8301 8.48369 14.8597 8.57864C14.8892 8.67359 15.1909 8.65619 15.0401 8.38471C14.8892 8.11322 14.0761 7.94961 13.9793 7.87305C13.8825 7.79648 13.9725 7.5061 13.7987 7.44284C13.625 7.37958 13.1502 6.9307 13.1505 6.71438C13.1508 6.49806 12.9273 6.39624 12.733 6.39624C12.5388 6.39624 12.173 6.34293 12.0185 6.34293C11.8639 6.34293 11.7199 6.58851 11.8692 6.58851C12.0185 6.58851 11.891 7.04829 11.641 7.14878C11.391 7.24926 11.1978 7.39369 10.9123 7.39369C10.6269 7.39369 11.3164 7.6275 11.4263 7.53517C11.5362 7.44284 11.5001 7.30526 11.8692 7.14878C12.2383 6.9923 12.5905 6.89965 12.5459 7.02421C12.5013 7.14878 12.6151 7.35713 12.789 7.28172C12.9628 7.20631 13.0186 7.01583 13.0186 7.14878C13.0186 7.28172 13.2852 7.96454 13.4889 8.23104C13.6925 8.49754 14.2123 8.89243 14.2123 8.89243Z" fill="#5EAA22"/>
<path d="M11.7856 6.39914C11.7856 6.39914 11.6503 6.60385 11.7856 6.60385C11.9208 6.60385 12.1384 6.60385 12.0058 6.5015C11.8733 6.39914 11.7856 6.39914 11.7856 6.39914Z" fill="#FFD018"/>
<path d="M12.2375 6.39421C12.2375 6.39421 12.2381 6.53032 12.3319 6.53032C12.4256 6.53032 12.509 6.66642 12.509 6.53032C12.509 6.39421 12.6393 6.43935 12.4384 6.39421C12.2375 6.34907 12.2375 6.39421 12.2375 6.39421Z" fill="#FFD018"/>
<path d="M12.8148 6.42538C12.8148 6.42538 12.7244 6.49002 12.7696 6.60531C12.8148 6.7206 12.917 6.94875 12.7696 6.94875C12.6222 6.94875 12.501 7.031 12.6161 7.031C12.7312 7.031 12.9361 7.11326 12.9361 7.031C12.9361 6.94875 13.0194 7.16664 13.0194 7.031C13.0194 6.89537 13.0194 6.83056 13.0194 6.75102C13.0194 6.67148 13.1027 6.64861 13.0194 6.537C12.9361 6.42538 12.8148 6.42538 12.8148 6.42538Z" fill="#FFD018"/>
<path d="M13.0236 7.21909C13.0236 7.21909 13.2119 7.78217 13.3143 7.85477C13.4167 7.92736 13.4627 8.53887 13.5076 8.60536C13.5525 8.67185 14.1649 9.00742 14.1649 9.1875C14.1649 9.36759 14.3535 9.04912 14.2592 8.8708C14.1649 8.69247 13.8681 8.3128 13.6546 8.23C13.4411 8.1472 13.4682 7.94671 13.4233 7.80581C13.3784 7.6649 13.6889 7.91966 13.4233 7.60004C13.1577 7.28042 13.1647 7.45194 13.2395 7.45194C13.3143 7.45194 13.3891 7.41417 13.3143 7.3645C13.2395 7.31484 13.0236 7.21909 13.0236 7.21909Z" fill="#FFD018"/>
<path d="M11.0271 8.38031C11.0271 8.38031 10.4153 9.40661 10.3062 9.45963C10.197 9.51265 10.1157 9.52343 10.0599 9.45963C10.0041 9.39583 9.99837 9.63085 10.0599 9.6952C10.1214 9.75955 10.3062 9.75955 10.4087 9.64528C10.4087 9.64528 10.425 9.934 10.5847 10.1517C10.7445 10.3693 10.811 10.3092 10.811 10.4323C10.811 10.5554 10.8488 10.7184 10.8976 10.7184C10.9463 10.7184 10.9841 11.1058 10.8976 11.1058C10.811 11.1058 11.0981 11.1376 11.2232 11.0407C11.3483 10.9438 11.4018 10.87 11.375 10.87C11.3483 10.87 11.0271 10.7094 11.0271 10.5957C11.0271 10.4821 10.811 10.3931 10.811 10.2243C10.811 10.0556 10.6988 9.85498 10.6988 9.77509C10.6988 9.6952 10.7948 9.80592 10.8976 9.73027C11.0004 9.65462 11.0271 9.45963 11.0271 9.45963C11.0271 9.45963 10.8652 9.5628 10.811 9.51121C10.7569 9.45963 10.5866 9.3578 10.6988 9.18309C10.811 9.00838 11.0271 8.38031 11.0271 8.38031Z" fill="#FFD018"/>
<path fill-rule="evenodd" clip-rule="evenodd" d="M12.0871 5.14355C12.0871 5.14355 11.8681 5.23611 11.9411 5.37362C12.0141 5.51114 12.0404 5.57203 12.0871 5.54159C12.1339 5.51114 12.4621 5.45358 12.3886 5.29857C12.315 5.14355 12.161 5.14355 12.161 5.14355H12.0871Z" fill="#5EAA22"/>
<path d="M12.847 5.0692C12.847 5.0692 12.5577 4.94758 12.6541 5.0692C12.7505 5.19082 12.8739 5.25494 12.9627 5.25494C13.0514 5.25494 13.2359 5.2298 13.1437 5.18073C13.0514 5.13166 12.847 5.0692 12.847 5.0692Z" fill="#FFD018"/>
<path fill-rule="evenodd" clip-rule="evenodd" d="M9.99069 8.23029C9.99215 8.22277 9.98327 8.21735 9.97759 8.22249C9.91763 8.27674 9.73617 8.45916 9.81303 8.6178C9.90452 8.80661 9.996 8.87217 9.996 8.87217C9.996 8.87217 10.0517 9.16125 10.1669 9.23992C10.1669 9.23992 10.3215 9.2324 10.3292 9.00739C10.3292 9.00739 10.5919 8.93418 10.6691 9.08999C10.6691 9.08999 10.6182 9.10752 10.6182 9.23992C10.6182 9.37232 10.737 9.51575 10.737 9.51575C10.737 9.51575 10.7914 9.0591 11.036 8.76468C11.2806 8.47027 11.3506 8.41216 11.3506 8.41216V8.08087C11.3506 8.08087 10.8445 8.4726 10.737 8.79831C10.737 8.79831 10.4822 8.80639 10.3786 8.76468C10.2751 8.72298 10.5079 8.65457 10.3786 8.50634C10.2493 8.35811 10.3086 8.71505 10.1669 8.6178C9.94527 8.55925 9.97535 8.309 9.99069 8.23029Z" fill="#5EAA22"/>
<path fill-rule="evenodd" clip-rule="evenodd" d="M11.0934 7.9425L13.6857 7.9425V9.44714C13.6857 9.44714 13.4744 10.6766 12.3454 11.2823C12.3454 11.2823 11.2519 10.6682 11.0934 9.44714V7.9425Z" fill="#5EAA22"/>
<mask id="mask0_270_55198" style="mask-type:luminance" maskUnits="userSpaceOnUse" x="11" y="7" width="3" height="5">
<path fill-rule="evenodd" clip-rule="evenodd" d="M11.0934 7.9425L13.6857 7.9425V9.44714C13.6857 9.44714 13.4744 10.6766 12.3454 11.2823C12.3454 11.2823 11.2519 10.6682 11.0934 9.44714V7.9425Z" fill="white"/>
</mask>
<g mask="url(#mask0_270_55198)">
<path fill-rule="evenodd" clip-rule="evenodd" d="M12.3258 7.86121L11.1932 10.094L12.7292 8.76895L13.7863 10.4335V7.86121L12.7292 8.68446L12.3258 7.86121Z" fill="#58A5FF"/>
<path d="M12.2901 9.47571C12.2901 9.42904 12.3279 9.3912 12.3746 9.3912C12.4213 9.3912 12.4591 9.42904 12.4591 9.47571V10.901C12.4591 10.9476 12.4213 10.9855 12.3746 10.9855C12.3279 10.9855 12.2901 10.9476 12.2901 10.901L12.2901 9.47571Z" fill="#FFD018"/>
<path d="M11.9921 9.82498C11.9485 9.82498 11.9132 9.78967 11.9132 9.74611C11.9132 9.70255 11.9485 9.66724 11.9921 9.66724H12.764C12.8076 9.66724 12.8429 9.70255 12.8429 9.74611C12.8429 9.78967 12.8076 9.82498 12.764 9.82498H11.9921Z" fill="#FFD018"/>
<path d="M12.5318 10.7952L12.4458 10.8655C12.319 10.7105 12.2034 10.636 12.1013 10.636C11.9509 10.636 11.8286 10.5096 11.7288 10.2701L11.8314 10.2274C11.9158 10.43 12.0076 10.5248 12.1013 10.5248C12.2433 10.5248 12.386 10.6169 12.5318 10.7952Z" fill="#FFD018"/>
<path fill-rule="evenodd" clip-rule="evenodd" d="M11.629 9.88834C11.6285 9.88787 11.6277 9.88823 11.6277 9.88892V10.43C11.6277 10.4306 11.6283 10.431 11.6288 10.4308L12.0331 10.2632C12.0336 10.263 12.0337 10.2623 12.0333 10.2619L11.629 9.88834Z" fill="#FFD018"/>
<path d="M12.2542 10.7952L12.3402 10.8655C12.4669 10.7105 12.5825 10.636 12.6847 10.636C12.8351 10.636 12.9574 10.5096 13.0571 10.2701L12.9546 10.2274C12.8702 10.43 12.7784 10.5248 12.6847 10.5248C12.5427 10.5248 12.3999 10.6169 12.2542 10.7952Z" fill="#FFD018"/>
<path fill-rule="evenodd" clip-rule="evenodd" d="M13.1569 9.88834C13.1574 9.88787 13.1583 9.88823 13.1583 9.88892V10.43C13.1583 10.4306 13.1577 10.431 13.1572 10.4308L12.7529 10.2632C12.7524 10.263 12.7522 10.2623 12.7527 10.2619L13.1569 9.88834Z" fill="#FFD018"/>
<rect x="12.2042" y="8.82785" width="0.338028" height="0.478481" fill="white"/>
</g>
</g>
<defs>
<clipPath id="clip0_270_55198">
<rect width="16" height="12" fill="white"/>
</clipPath>
<clipPath id="clip1_270_55198">
<rect width="9" height="7" fill="white"/>
</clipPath>
</defs>
</svg>

<svg width="16" height="12" fill="none" xmlns="http://www.w3.org/2000/svg">
  <mask id="a" maskUnits="userSpaceOnUse" x="0" y="0" width="16" height="12">
    <path fill="#fff" d="M0 0h16v12H0z"/>
  </mask>
  <g mask="url(#a)">
    <path fill-rule="evenodd" clip-rule="evenodd" d="M0 0v12h16V0H0z" fill="#2E42A5"/>
    <mask id="b" maskUnits="userSpaceOnUse" x="0" y="0" width="16" height="12">
      <path fill-rule="evenodd" clip-rule="evenodd" d="M0 0v12h16V0H0z" fill="#fff"/>
    </mask>
    <g mask="url(#b)">
      <path fill-rule="evenodd" clip-rule="evenodd" d="M10.308 5.835s.05.52-.059.814c-.108.295-.163.466-.163.277 0-.188-.076-.337-.137-.337-.061 0-.013.187-.075.187-.061 0-.273.032-.273-.078s-.028.294.11.33c.137.036-.067.148-.158.113 0 0 .375.116.522.215 0 0 .44.522.852.458 0 0-.56-.184-.462-.535.099-.352.462-.403.462-.403s.17.054.166.196c-.005.142.124-.044.124-.044s.021-.18-.002-.223c-.023-.044.39-.128.417-.313 0 0-.423.018-.452-.03-.029-.047.131-.121.081-.213-.05-.093-.796.527-.796.527s.258-.422.258-.648c0-.227-.066-.382-.258-.382s-.157.089-.157.089zm3.884.123v.001c.028-.026.2-.176.343-.057.157.129-.079.255-.079.255s.11.101.236.101.157-.101.157-.101.01.225.42.31c0 0 .147-.199 0-.308 0 0 .174-.034.16-.168 0 0-.141.046-.243-.06-.101-.105-.299-.154-.443-.13-.365-.125-.53.12-.551.157z" fill="#5EAA22"/>
      <path fill-rule="evenodd" clip-rule="evenodd" d="M11.702 7.097s.424.759.16.916c-.266.157 1.26.045 1.405 0 .144-.045-.03-.285-.189-.35-.16-.067-.816-.288-.99-.455-.174-.167-.068-.226.073-.39.14-.165.66-.23.66-.384s.33-.788.561-.836c.231-.048.107-.123.053-.123-.053 0-.372.312-.492.256-.121-.057-.136-.053 0-.189.135-.136.237-.293.058-.18-.18.113-.475.291-.617.291-.143 0-.649-.06-.586.078.063.138.09.378.363.54.273.163.154.281-.073.438a1.715 1.715 0 00-.386.388z" fill="#96877D"/>
      <path d="M14.52 6.094l-.81 1.541s-.023.436.555.146c.579-.29.556-.496.723-.496.166 0 .22-.088.22-.088l-.112-.083s-.013-.152.058-.186c0 0-.138-.072-.158-.012-.02.06-.117-.126-.062-.126 0 0-.122.187-.147.26 0 0-.177-.068-.168-.383.008-.315-.1-.573-.1-.573zm-3.852-.244s-.412.09-.367.186c.044.094.11-.003-.092.111 0 0-.355.26-.432.232-.077-.028.055.066.055-.232 0-.297-.206-.055 0-.254.206-.198.278-.043.377-.158.099-.114.01-.053.278-.053.269 0 .181.168.181.168zm1.257 1.532s-1.153.86-1.384.925c-.23.064.474-.018.647-.131.172-.114.737-.794.737-.794z" fill="#FFD018"/>
      <path fill-rule="evenodd" clip-rule="evenodd" d="M14.212 8.892s.111.679-.178.612c-.29-.067-.409-.101-.409-.101s.106.316.258.316c0 0 .258.478.158.629 0 0 .445-.343.373-.615-.072-.273.115.044.115.044s.164.075.282-.008c.118-.084-.002-.047-.12-.207-.118-.16-.089-.607-.449-.84-.36-.232-.443-.224-.443-.224s-.265-.412-.106-.385c0 0 1.137.37 1.167.466.03.095.33.077.18-.194-.15-.272-.964-.435-1.06-.512-.098-.077-.008-.367-.181-.43-.174-.063-.649-.512-.649-.729 0-.216-.223-.318-.417-.318-.194 0-.56-.053-.715-.053-.154 0-.298.246-.149.246.15 0 .022.46-.228.56-.25.1-.443.245-.729.245-.285 0 .404.234.514.141.11-.092.074-.23.443-.386.37-.157.722-.25.677-.125-.045.125.07.333.243.258.174-.076.23-.266.23-.133s.266.816.47 1.082c.204.267.723.661.723.661z" fill="#5EAA22"/>
      <path d="M11.786 6.4s-.136.204 0 .204c.135 0 .352 0 .22-.103-.133-.102-.22-.102-.22-.102zm.452-.006s0 .136.094.136.177.136.177 0 .13-.09-.07-.136c-.201-.045-.201 0-.201 0zm.577.031s-.09.065-.045.18c.045.116.147.344 0 .344-.148 0-.269.082-.154.082.115 0 .32.082.32 0s.083.136.083 0v-.28c0-.08.084-.102 0-.214-.083-.112-.204-.112-.204-.112zm.209.795s.188.562.29.635c.103.072.149.684.194.75.045.067.657.402.657.582 0 .18.189-.138.094-.316-.094-.179-.39-.558-.604-.641-.214-.083-.187-.283-.232-.424-.045-.141.266.114 0-.206-.265-.32-.258-.148-.184-.148.075 0 .15-.038.075-.088-.075-.05-.29-.145-.29-.145zm-1.997 1.16s-.612 1.027-.72 1.08c-.11.053-.191.063-.247 0-.056-.064-.062.17 0 .235.061.065.246.065.349-.05 0 0 .016.289.176.507.16.217.226.157.226.28 0 .123.038.286.087.286.048 0 .086.388 0 .388-.087 0 .2.032.325-.065s.179-.171.152-.171c-.027 0-.348-.16-.348-.274 0-.114-.216-.203-.216-.372 0-.168-.112-.369-.112-.449 0-.08.096.03.199-.045.102-.075.13-.27.13-.27s-.163.103-.217.051c-.054-.051-.224-.153-.112-.328.112-.175.328-.803.328-.803z" fill="#FFD018"/>
      <path fill-rule="evenodd" clip-rule="evenodd" d="M12.087 5.144s-.219.092-.146.23c.073.137.1.198.146.168.047-.03.375-.088.302-.243-.074-.155-.228-.155-.228-.155h-.074z" fill="#5EAA22"/>
      <path d="M12.847 5.07s-.29-.122-.193 0c.097.12.22.185.309.185.088 0 .273-.025.18-.074-.092-.05-.296-.112-.296-.112z" fill="#FFD018"/>
      <path fill-rule="evenodd" clip-rule="evenodd" d="M9.99 8.23c.002-.007-.007-.013-.012-.008-.06.055-.242.237-.165.396a.698.698 0 00.183.254s.056.29.17.368c0 0 .155-.008.163-.233 0 0 .263-.073.34.083 0 0-.05.018-.05.15s.118.276.118.276.054-.457.299-.751c.245-.295.315-.353.315-.353v-.331s-.507.392-.614.717c0 0-.255.008-.358-.033-.104-.042.129-.11 0-.259-.13-.148-.07.209-.212.112-.222-.059-.192-.309-.176-.388z" fill="#5EAA22"/>
      <path fill-rule="evenodd" clip-rule="evenodd" d="M11.093 7.942h2.593v1.505s-.212 1.23-1.34 1.835c0 0-1.094-.614-1.253-1.835V7.943z" fill="#5EAA22"/>
      <mask id="c" maskUnits="userSpaceOnUse" x="11" y="7" width="3" height="5">
        <path fill-rule="evenodd" clip-rule="evenodd" d="M11.093 7.942h2.593v1.505s-.212 1.23-1.34 1.835c0 0-1.094-.614-1.253-1.835V7.943z" fill="#fff"/>
      </mask>
      <g mask="url(#c)">
        <path fill-rule="evenodd" clip-rule="evenodd" d="M12.326 7.861l-1.133 2.233 1.536-1.325 1.057 1.665V7.86l-1.057.823-.403-.823z" fill="#58A5FF"/>
        <path d="M12.29 9.476a.084.084 0 11.17 0V10.9a.085.085 0 01-.17 0V9.476z" fill="#FFD018"/>
        <path d="M11.992 9.825a.079.079 0 110-.158h.772a.079.079 0 110 .158h-.772zm.54.97l-.086.07c-.127-.155-.243-.229-.345-.229-.15 0-.272-.126-.372-.366l.102-.043c.085.203.177.298.27.298.142 0 .285.092.43.27z" fill="#FFD018"/>
        <path fill-rule="evenodd" clip-rule="evenodd" d="M11.629 9.888h-.001v.542s0 .001 0 0l.405-.167v-.001l-.404-.374z" fill="#FFD018"/>
        <path d="M12.254 10.795l.086.07c.127-.155.242-.229.345-.229.15 0 .272-.126.372-.366l-.102-.043c-.085.203-.177.298-.27.298-.142 0-.285.092-.43.27z" fill="#FFD018"/>
        <path fill-rule="evenodd" clip-rule="evenodd" d="M13.157 9.888h.001v.542s0 .001 0 0l-.405-.167v-.001l.404-.374z" fill="#FFD018"/>
        <path fill="#fff" d="M12.204 8.828h.338v.478h-.338z"/>
      </g>
    </g>
  </g>
  <mask id="d" maskUnits="userSpaceOnUse" x="0" y="0" width="9" height="7">
    <path fill="#fff" d="M0 0h9v7H0z"/>
  </mask>
  <g mask="url(#d)">
    <path d="M-1.002 6.5l1.98.869L9.045.944l1.045-1.29-2.118-.29-3.29 2.768-2.649 1.865L-1.002 6.5z" fill="#F7FCFF"/>
    <path d="M-.731 7.108l1.009.505 9.436-8.08H8.298L-.731 7.109z" fill="#F50100"/>
    <path d="M10.002 6.5l-1.98.869L-.045.944-1.09-.346l2.118-.29 3.29 2.768 2.649 1.865L10.002 6.5z" fill="#F7FCFF"/>
    <path d="M9.935 6.937l-1.01.504-4.018-3.46-1.19-.386L-1.19-.342H.227L5.13 3.502l1.303.463 3.502 2.972z" fill="#F50100"/>
    <mask id="e" maskUnits="userSpaceOnUse" x="-1" y="-1" width="11" height="9" fill="#000">
      <path fill="#fff" d="M-1-1h11v9H-1z"/>
      <path fill-rule="evenodd" clip-rule="evenodd" d="M4.992 0h-1v3H0v1h3.992v3h1V4H9V3H4.992V0z"/>
    </mask>
    <path fill-rule="evenodd" clip-rule="evenodd" d="M4.992 0h-1v3H0v1h3.992v3h1V4H9V3H4.992V0z" fill="#F50100"/>
    <path d="M3.992 0v-.75h-.75V0h.75zm1 0h.75v-.75h-.75V0zm-1 3v.75h.75V3h-.75zM0 3v-.75h-.75V3H0zm0 1h-.75v.75H0V4zm3.992 0h.75v-.75h-.75V4zm0 3h-.75v.75h.75V7zm1 0v.75h.75V7h-.75zm0-3v-.75h-.75V4h.75zM9 4v.75h.75V4H9zm0-1h.75v-.75H9V3zM4.992 3h-.75v.75h.75V3zm-1-2.25h1v-1.5h-1v1.5zM4.742 3V0h-1.5v3h1.5zM0 3.75h3.992v-1.5H0v1.5zM.75 4V3h-1.5v1h1.5zm3.242-.75H0v1.5h3.992v-1.5zM4.742 7V4h-1.5v3h1.5zm.25-.75h-1v1.5h1v-1.5zM4.242 4v3h1.5V4h-1.5zM9 3.25H4.992v1.5H9v-1.5zM8.25 3v1h1.5V3h-1.5zm-3.258.75H9v-1.5H4.992v1.5zM4.242 0v3h1.5V0h-1.5z" fill="#F7FCFF" mask="url(#e)"/>
  </g>
</svg>
